X: 10
T: Galopede   [G]
T: Yarmouth Reel
T: Persian Dance
%T: Corn Field
O: Preston 1801
R: Reel
N: The AABC pattern is for the country dance "Galopede".  This tune is
N: used for several dances, with several different repeat patterns.
%P: AABC
Z: 1997 by John Chambers <jc:trillian.mit.edu>
B: Preston "24 Country Dances for 1801" 1801
B: Kerr - Merry Melodies vol. 4 (No. 296)
B: Cecil Sharp "Country Dance Tuens" 1909
B: Karpeles & Schofield p.1 1951
B: Kennedy v.1 p.31 #63 1951
B: Barnes v.1 p.43
M: C|
L: 1/8
K: G
   dc \
| "G"B2Bc "D7"A2AB | "G(Em)"G2G2 G2AB |1,3 "C"cBcd edcB | "D7"A2A2 A2 :|2,4 "C(Am)"cBAG "D7"FGAF | "G"G2G2 G2 :|
|: dc \
| "G"B2gf "C"e2ed | "D7"dcBc A2dc |1 "G"B2gf "C"edcB | "D7"A2A2 A2 :|2 "G"BdcB "D7"AcBA | "G"G2G2 G2 |]
|: Bc \
| "G".d2.d2 .d2g2 | .d2.d2 .d2g2 |1 .d2.d2 "(C)"edcB | "D7"A2A2 A2Bc :|2 "C"edcB "D7"dcBA | "G"G2G2 G2 |]

%%sep 2 1 500

